X:1
T:Fiddler's Green (Cavalry)
M:2/4
L:1/8
K:Eb
 E3/2 E/2 GB| eE E E/2E/2| GF ED| E3 B,/2B,/2| CB, DB,| EB, G B,/2B,/2|\
 G3/2 F/2 ED| E4| E E/2E/2 GB| eE EE/2-E/2| GF ED| E3 z| E| E2 E2|\
 E2 E2| E2 G2| B3 E| G2 F2| E2 D2| E4|
